assets/svgs/zxspectrum.svg

<?xml version="1.0" encoding="UTF-8" standalone="no"?>
<svg
   xmlns:dc="http://purl.org/dc/elements/1.1/"
   xmlns:cc="http://creativecommons.org/ns#"
   xmlns:rdf="http://www.w3.org/1999/02/22-rdf-syntax-ns#"
   xmlns:svg="http://www.w3.org/2000/svg"
   xmlns="http://www.w3.org/2000/svg"
   xmlns:sodipodi="http://sodipodi.sourceforge.net/DTD/sodipodi-0.dtd"
   xmlns:inkscape="http://www.inkscape.org/namespaces/inkscape"
   version="1.1"
   id="svg28"
   sodipodi:docname="zxspectrum.svg"
   width="264"
   height="40.962238"
   inkscape:version="0.92.5 (2060ec1f9f, 2020-04-08)">
  <metadata
     id="metadata34">
    <rdf:RDF>
      <cc:Work
         rdf:about="">
        <dc:format>image/svg+xml</dc:format>
        <dc:type
           rdf:resource="http://purl.org/dc/dcmitype/StillImage" />
      </cc:Work>
    </rdf:RDF>
  </metadata>
  <defs
     id="defs32" />
  <sodipodi:namedview
     pagecolor="#ffffff"
     bordercolor="#666666"
     borderopacity="1"
     objecttolerance="10"
     gridtolerance="10"
     guidetolerance="10"
     inkscape:pageopacity="0"
     inkscape:pageshadow="2"
     inkscape:window-width="532"
     inkscape:window-height="460"
     id="namedview30"
     showgrid="false"
     inkscape:zoom="2.36"
     inkscape:cx="50"
     inkscape:cy="-9.03776"
     inkscape:window-x="72"
     inkscape:window-y="27"
     inkscape:window-maximized="0"
     inkscape:current-layer="svg28" />
  <g
     transform="scale(0.44)"
     id="g26">
    <path
       d="M 0.6,55.395 V 47.211 H 64.698 V 37.869 H 0.6 L 0.195,12.66 H 73.02 v 8.163 H 8.922 l 0.402,8.883 H 73.422 V 55.398 H 0.6 Z"
       id="path5"
       style="fill:#ffffff;fill-opacity:1;stroke-opacity:1"
       inkscape:connector-curvature="0" />
    <path
       d="M 78.696,55.395 V 12.819 h 8.724 v 42.576 z"
       id="path7"
       style="fill:#ffffff;fill-opacity:1;stroke-opacity:1"
       inkscape:connector-curvature="0" />
    <path
       d="M 92.103,55.395 V 12.819 h 72.825 v 42.576 h -8.727 V 20.982 h -55.374 v 34.419 l -8.724,-0.006 z"
       id="path9"
       style="fill:#ffffff;fill-opacity:1;stroke-opacity:1"
       inkscape:connector-curvature="0" />
    <path
       d="M 169.584,55.395 V 12.819 h 72.876 v 8.166 h -64.095 v 26.226 h 64.095 v 8.19 h -72.876 z"
       id="path11"
       style="fill:#ffffff;fill-opacity:1;stroke-opacity:1"
       inkscape:connector-curvature="0" />
    <path
       d="M 248.268,55.395 V 0 h 8.727 v 55.398 h -8.727 z"
       id="path13"
       style="fill:#ffffff;fill-opacity:1;stroke-opacity:1"
       inkscape:connector-curvature="0" />
    <path
       d="M 339.72,55.395 V 12.819 h 8.778 v 42.576 z"
       id="path15"
       style="fill:#ffffff;fill-opacity:1;stroke-opacity:1"
       inkscape:connector-curvature="0" />
    <path
       d="M 353.769,55.395 V 12.819 h 72.822 v 8.166 h -64.095 v 34.416 h -8.727 z"
       id="path17"
       style="fill:#ffffff;fill-opacity:1;stroke-opacity:1"
       inkscape:connector-curvature="0" />
    <path
       d="m 261.651,12.819 v 8.166 h 64.095 v 9.336 h -64.095 v 25.077 h 72.876 V 12.819 Z m 64.095,34.392 h -55.32 v -9.342 h 55.32 z"
       id="path19"
       style="fill:#ffffff;fill-opacity:1;stroke-opacity:1"
       inkscape:connector-curvature="0" />
    <path
       d="M 78.696,8.19 V 0 h 8.724 v 8.19 z"
       id="path21"
       style="fill:#ffffff;fill-opacity:1;stroke-opacity:1"
       inkscape:connector-curvature="0" />
    <path
       d="M 339.72,8.19 V 0 h 8.778 v 8.19 z"
       id="path23"
       style="fill:#ffffff;fill-opacity:1;stroke-opacity:1"
       inkscape:connector-curvature="0" />
    <path
       d="M 0,84.9 10.254,72.639 h -9.45 v -3.531 h 15.045 v 3.318 L 5.595,84.687 h 10.521 v 3.534 H 0 Z"
       id="path27"
       style="fill:#ffffff;fill-opacity:1;stroke-opacity:1"
       inkscape:connector-curvature="0" />
    <path
       d="m 23.268,78.207 -6.159,-9.102 h 4.872 l 3.75,6.105 3.882,-6.105 h 4.605 l -6.132,9.129 6.666,9.987 h -5.004 l -4.179,-6.612 -4.257,6.612 h -4.74 z"
       id="path29"
       style="fill:#ffffff;fill-opacity:1;stroke-opacity:1"
       inkscape:connector-curvature="0" />
    <path
       d="m 46.749,81.879 c 0,2.541 1.98,3.531 4.23,3.531 1.473,0 3.723,-0.426 3.723,-2.382 0,-2.061 -2.865,-2.409 -5.676,-3.159 -2.838,-0.75 -5.703,-1.845 -5.703,-5.436 0,-3.909 3.696,-5.781 7.149,-5.781 3.99,0 7.656,1.737 7.656,6.156 H 54.06 c -0.135,-2.304 -1.767,-2.889 -3.774,-2.889 -1.341,0 -2.892,0.561 -2.892,2.169 0,1.473 0.912,1.659 5.703,2.889 1.392,0.348 5.676,1.233 5.676,5.568 0,3.507 -2.757,6.132 -7.953,6.132 -4.23,0 -8.19,-2.088 -8.136,-6.798 z"
       id="path31"
       style="fill:#ffffff;fill-opacity:1;stroke-opacity:1"
       inkscape:connector-curvature="0" />
    <path
       d="m 60.858,74.382 h 3.615 v 1.767 h 0.054 c 0.909,-1.473 2.409,-2.142 4.122,-2.142 4.338,0 6.291,3.507 6.291,7.44 0,3.696 -2.034,7.149 -6.075,7.149 -1.662,0 -3.24,-0.723 -4.152,-2.088 h -0.054 v 6.588 h -3.801 z m 10.281,6.957 c 0,-2.193 -0.885,-4.47 -3.321,-4.47 -2.49,0 -3.291,2.223 -3.291,4.47 0,2.25 0.855,4.392 3.321,4.392 2.487,0 3.291,-2.142 3.291,-4.392 z"
       id="path33"
       style="fill:#ffffff;fill-opacity:1;stroke-opacity:1"
       inkscape:connector-curvature="0" />
    <path
       d="m 80.352,82.224 c 0.105,2.409 1.284,3.507 3.399,3.507 1.524,0 2.757,-0.936 2.997,-1.794 h 3.345 c -1.071,3.264 -3.345,4.656 -6.477,4.656 -4.365,0 -7.068,-2.997 -7.068,-7.281 0,-4.152 2.865,-7.311 7.068,-7.311 4.71,0 6.987,3.966 6.72,8.22 z m 6.183,-2.409 c -0.348,-1.929 -1.179,-2.943 -3.027,-2.943 -2.409,0 -3.105,1.872 -3.159,2.943 z"
       id="path35"
       style="fill:#ffffff;fill-opacity:1;stroke-opacity:1"
       inkscape:connector-curvature="0" />
    <path
       d="m 102.009,79.251 c -0.243,-1.551 -1.23,-2.379 -2.811,-2.379 -2.436,0 -3.24,2.46 -3.24,4.494 0,1.983 0.774,4.365 3.159,4.365 1.767,0 2.784,-1.125 3.024,-2.808 h 3.666 c -0.483,3.666 -3.024,5.673 -6.666,5.673 -4.176,0 -6.99,-2.943 -6.99,-7.095 0,-4.308 2.571,-7.497 7.068,-7.497 3.27,0 6.267,1.713 6.507,5.25 z"
       id="path37"
       style="fill:#ffffff;fill-opacity:1;stroke-opacity:1"
       inkscape:connector-curvature="0" />
    <path
       d="m 112.773,74.382 h 2.784 v 2.541 h -2.784 v 6.855 c 0,1.287 0.321,1.608 1.605,1.608 0.405,0 0.777,-0.027 1.179,-0.111 v 2.973 c -0.642,0.108 -1.473,0.135 -2.22,0.135 -2.331,0 -4.365,-0.537 -4.365,-3.294 v -8.163 h -2.304 v -2.544 h 2.304 V 70.23 h 3.801 z"
       id="path39"
       style="fill:#ffffff;fill-opacity:1;stroke-opacity:1"
       inkscape:connector-curvature="0" />
    <path
       d="m 117.378,74.382 h 3.615 v 2.571 h 0.054 c 0.696,-1.743 2.571,-2.946 4.419,-2.946 0.267,0 0.588,0.054 0.828,0.138 v 3.531 c -0.348,-0.081 -0.909,-0.135 -1.365,-0.135 -2.781,0 -3.747,2.007 -3.747,4.443 v 6.24 h -3.801 z"
       id="path41"
       style="fill:#ffffff;fill-opacity:1;stroke-opacity:1"
       inkscape:connector-curvature="0" />
    <path
       d="m 140.778,88.221 h -3.615 v -1.929 h -0.081 c -0.963,1.554 -2.625,2.304 -4.23,2.304 -4.044,0 -5.061,-2.274 -5.061,-5.7 v -8.514 h 3.804 V 82.2 c 0,2.274 0.669,3.399 2.436,3.399 2.061,0 2.943,-1.152 2.943,-3.963 v -7.254 h 3.801 z"
       id="path43"
       style="fill:#ffffff;fill-opacity:1;stroke-opacity:1"
       inkscape:connector-curvature="0" />
    <path
       d="m 143.778,74.382 h 3.588 v 1.872 h 0.054 c 0.99,-1.422 2.436,-2.25 4.23,-2.25 1.74,0 3.291,0.642 4.041,2.304 0.804,-1.206 2.25,-2.304 4.176,-2.304 2.946,0 5.061,1.365 5.061,4.953 v 9.264 h -3.801 v -7.845 c 0,-1.845 -0.159,-3.372 -2.328,-3.372 -2.142,0 -2.544,1.767 -2.544,3.507 v 7.71 h -3.804 v -7.764 c 0,-1.608 0.108,-3.453 -2.304,-3.453 -0.747,0 -2.568,0.48 -2.568,3.186 v 8.031 h -3.801 z"
       id="path45"
       style="fill:#ffffff;fill-opacity:1;stroke-opacity:1"
       inkscape:connector-curvature="0" />
    <polygon
       points="427.632,65.919 491.244,2.301 455.04,2.301 391.431,65.919 "
       id="polygon49"
       style="fill:#cccccc;fill-opacity:1;stroke-opacity:1" />
    <polygon
       points="463.917,65.919 527.529,2.301 491.325,2.301 427.713,65.919 "
       id="polygon51"
       style="fill:#dddddd;fill-opacity:1;stroke-opacity:1" />
    <polygon
       points="500.175,65.919 563.784,2.301 527.58,2.301 463.971,65.919 "
       id="polygon53"
       style="fill:#eeeeee;fill-opacity:1;stroke-opacity:1" />
    <polygon
       points="536.391,65.919 600,2.301 563.799,2.301 500.187,65.919 "
       id="polygon55"
       style="fill:#ffffff;fill-opacity:1;stroke-opacity:1" />
  </g>
</svg>

<?xml version="1.0" encoding="utf-8"?>
<svg version="1.1" viewBox="0 0 264 41" xmlns="http://www.w3.org/2000/svg">
  <g transform="matrix(0.44, 0, 0, 0.44, 0, 0)">
    <path d="M 0.6 55.395 L 0.6 47.211 L 64.698 47.211 L 64.698 37.869 L 0.6 37.869 L 0.195 12.66 L 73.02 12.66 L 73.02 20.823 L 8.922 20.823 L 9.324 29.706 L 73.422 29.706 L 73.422 55.398 L 0.6 55.398 L 0.6 55.395 Z" id="path5" style="fill-opacity: 1; stroke-opacity: 1; fill: rgb(255, 255, 255);"/>
    <path d="M 78.696 55.395 L 78.696 12.819 L 87.42 12.819 L 87.42 55.395 L 78.696 55.395 L 78.696 55.395 Z" id="path7" style="fill-opacity: 1; stroke-opacity: 1; fill: rgb(255, 255, 255);"/>
    <path d="M 92.103 55.395 L 92.103 12.819 L 164.928 12.819 L 164.928 55.395 L 156.201 55.395 L 156.201 20.982 L 100.827 20.982 L 100.827 55.401 L 92.103 55.395 L 92.103 55.395 L 92.103 55.395 Z" id="path9" style="fill-opacity: 1; stroke-opacity: 1; fill: rgb(255, 255, 255);"/>
    <path d="M 169.584 55.395 L 169.584 12.819 L 242.46 12.819 L 242.46 20.985 L 178.365 20.985 L 178.365 47.211 L 242.46 47.211 L 242.46 55.401 L 169.584 55.401 L 169.584 55.395 Z" id="path11" style="fill-opacity: 1; stroke-opacity: 1; fill: rgb(255, 255, 255);"/>
    <path d="M 248.268 55.395 L 248.268 0 L 256.995 0 L 256.995 55.398 L 248.268 55.398 L 248.268 55.395 Z" id="path13" style="fill-opacity: 1; stroke-opacity: 1; fill: rgb(255, 255, 255);"/>
    <path d="M 339.72 55.395 L 339.72 12.819 L 348.498 12.819 L 348.498 55.395 L 339.72 55.395 L 339.72 55.395 Z" id="path15" style="fill-opacity: 1; stroke-opacity: 1; fill: rgb(255, 255, 255);"/>
    <path d="M 353.769 55.395 L 353.769 12.819 L 426.591 12.819 L 426.591 20.985 L 362.496 20.985 L 362.496 55.401 L 353.769 55.401 L 353.769 55.395 L 353.769 55.395 Z" id="path17" style="fill-opacity: 1; stroke-opacity: 1; fill: rgb(255, 255, 255);"/>
    <path d="M 261.651 12.819 L 261.651 20.985 L 325.746 20.985 L 325.746 30.321 L 261.651 30.321 L 261.651 55.398 L 334.527 55.398 L 334.527 12.819 L 261.651 12.819 Z M 325.746 47.211 L 270.426 47.211 L 270.426 37.869 L 325.746 37.869 L 325.746 47.211 Z" id="path19" style="fill-opacity: 1; stroke-opacity: 1; fill: rgb(255, 255, 255);"/>
    <path d="M 78.696 8.19 L 78.696 0 L 87.42 0 L 87.42 8.19 L 78.696 8.19 L 78.696 8.19 Z" id="path21" style="fill-opacity: 1; stroke-opacity: 1; fill: rgb(255, 255, 255);"/>
    <path d="M 339.72 8.19 L 339.72 0 L 348.498 0 L 348.498 8.19 L 339.72 8.19 L 339.72 8.19 Z" id="path23" style="fill-opacity: 1; stroke-opacity: 1; fill: rgb(255, 255, 255);"/>
    <path d="M 0 84.9 L 10.254 72.639 L 0.804 72.639 L 0.804 69.108 L 15.849 69.108 L 15.849 72.426 L 5.595 84.687 L 16.116 84.687 L 16.116 88.221 L 0 88.221 L 0 84.9 L 0 84.9 Z" id="path27" style="fill-opacity: 1; stroke-opacity: 1; fill: rgb(255, 255, 255);"/>
    <path d="M 23.268 78.207 L 17.109 69.105 L 21.981 69.105 L 25.731 75.21 L 29.613 69.105 L 34.218 69.105 L 28.086 78.234 L 34.752 88.221 L 29.748 88.221 L 25.569 81.609 L 21.312 88.221 L 16.572 88.221 L 23.268 78.207 Z" id="path29" style="fill-opacity: 1; stroke-opacity: 1; fill: rgb(255, 255, 255);"/>
    <path d="M 46.749 81.879 C 46.749 84.42 48.729 85.41 50.979 85.41 C 52.452 85.41 54.702 84.984 54.702 83.028 C 54.702 80.967 51.837 80.619 49.026 79.869 C 46.188 79.119 43.323 78.024 43.323 74.433 C 43.323 70.524 47.019 68.652 50.472 68.652 C 54.462 68.652 58.128 70.389 58.128 74.808 L 54.06 74.808 C 53.925 72.504 52.293 71.919 50.286 71.919 C 48.945 71.919 47.394 72.48 47.394 74.088 C 47.394 75.561 48.306 75.747 53.097 76.977 C 54.489 77.325 58.773 78.21 58.773 82.545 C 58.773 86.052 56.016 88.677 50.82 88.677 C 46.59 88.677 42.63 86.589 42.684 81.879 L 46.749 81.879 L 46.749 81.879 Z" id="path31" style="fill-opacity: 1; stroke-opacity: 1; fill: rgb(255, 255, 255);"/>
    <path d="M 60.858 74.382 L 64.473 74.382 L 64.473 76.149 L 64.527 76.149 C 65.436 74.676 66.936 74.007 68.649 74.007 C 72.987 74.007 74.94 77.514 74.94 81.447 C 74.94 85.143 72.906 88.596 68.865 88.596 C 67.203 88.596 65.625 87.873 64.713 86.508 L 64.659 86.508 L 64.659 93.096 L 60.858 93.096 L 60.858 74.382 L 60.858 74.382 Z M 71.139 81.339 C 71.139 79.146 70.254 76.869 67.818 76.869 C 65.328 76.869 64.527 79.092 64.527 81.339 C 64.527 83.589 65.382 85.731 67.848 85.731 C 70.335 85.731 71.139 83.589 71.139 81.339 Z" id="path33" style="fill-opacity: 1; stroke-opacity: 1; fill: rgb(255, 255, 255);"/>
    <path d="M 80.352 82.224 C 80.457 84.633 81.636 85.731 83.751 85.731 C 85.275 85.731 86.508 84.795 86.748 83.937 L 90.093 83.937 C 89.022 87.201 86.748 88.593 83.616 88.593 C 79.251 88.593 76.548 85.596 76.548 81.312 C 76.548 77.16 79.413 74.001 83.616 74.001 C 88.326 74.001 90.603 77.967 90.336 82.221 L 80.352 82.224 L 80.352 82.224 Z M 86.535 79.815 C 86.187 77.886 85.356 76.872 83.508 76.872 C 81.099 76.872 80.403 78.744 80.349 79.815 L 86.535 79.815 Z" id="path35" style="fill-opacity: 1; stroke-opacity: 1; fill: rgb(255, 255, 255);"/>
    <path d="M 102.009 79.251 C 101.766 77.7 100.779 76.872 99.198 76.872 C 96.762 76.872 95.958 79.332 95.958 81.366 C 95.958 83.349 96.732 85.731 99.117 85.731 C 100.884 85.731 101.901 84.606 102.141 82.923 L 105.807 82.923 C 105.324 86.589 102.783 88.596 99.141 88.596 C 94.965 88.596 92.151 85.653 92.151 81.501 C 92.151 77.193 94.722 74.004 99.219 74.004 C 102.489 74.004 105.486 75.717 105.726 79.254 L 102.009 79.251 L 102.009 79.251 Z" id="path37" style="fill-opacity: 1; stroke-opacity: 1; fill: rgb(255, 255, 255);"/>
    <path d="M 112.773 74.382 L 115.557 74.382 L 115.557 76.923 L 112.773 76.923 L 112.773 83.778 C 112.773 85.065 113.094 85.386 114.378 85.386 C 114.783 85.386 115.155 85.359 115.557 85.275 L 115.557 88.248 C 114.915 88.356 114.084 88.383 113.337 88.383 C 111.006 88.383 108.972 87.846 108.972 85.089 L 108.972 76.926 L 106.668 76.926 L 106.668 74.382 L 108.972 74.382 L 108.972 70.23 L 112.773 70.23 L 112.773 74.382 L 112.773 74.382 Z" id="path39" style="fill-opacity: 1; stroke-opacity: 1; fill: rgb(255, 255, 255);"/>
    <path d="M 117.378 74.382 L 120.993 74.382 L 120.993 76.953 L 121.047 76.953 C 121.743 75.21 123.618 74.007 125.466 74.007 C 125.733 74.007 126.054 74.061 126.294 74.145 L 126.294 77.676 C 125.946 77.595 125.385 77.541 124.929 77.541 C 122.148 77.541 121.182 79.548 121.182 81.984 L 121.182 88.224 L 117.381 88.224 L 117.378 74.382 L 117.378 74.382 Z" id="path41" style="fill-opacity: 1; stroke-opacity: 1; fill: rgb(255, 255, 255);"/>
    <path d="M 140.778 88.221 L 137.163 88.221 L 137.163 86.292 L 137.082 86.292 C 136.119 87.846 134.457 88.596 132.852 88.596 C 128.808 88.596 127.791 86.322 127.791 82.896 L 127.791 74.382 L 131.595 74.382 L 131.595 82.2 C 131.595 84.474 132.264 85.599 134.031 85.599 C 136.092 85.599 136.974 84.447 136.974 81.636 L 136.974 74.382 L 140.775 74.382 L 140.778 88.221 L 140.778 88.221 Z" id="path43" style="fill-opacity: 1; stroke-opacity: 1; fill: rgb(255, 255, 255);"/>
    <path d="M 143.778 74.382 L 147.366 74.382 L 147.366 76.254 L 147.42 76.254 C 148.41 74.832 149.856 74.004 151.65 74.004 C 153.39 74.004 154.941 74.646 155.691 76.308 C 156.495 75.102 157.941 74.004 159.867 74.004 C 162.813 74.004 164.928 75.369 164.928 78.957 L 164.928 88.221 L 161.127 88.221 L 161.127 80.376 C 161.127 78.531 160.968 77.004 158.799 77.004 C 156.657 77.004 156.255 78.771 156.255 80.511 L 156.255 88.221 L 152.451 88.221 L 152.451 80.457 C 152.451 78.849 152.559 77.004 150.147 77.004 C 149.4 77.004 147.579 77.484 147.579 80.19 L 147.579 88.221 L 143.778 88.221 L 143.778 74.382 L 143.778 74.382 Z" id="path45" style="fill-opacity: 1; stroke-opacity: 1; fill: rgb(255, 255, 255);"/>
    <polygon points="455.04 2.301 391.431 65.919 427.632 65.919 491.244 2.301" id="polygon49" style="fill-opacity: 1; stroke-opacity: 1; fill: rgb(204, 204, 204);"/>
    <polygon points="491.325 2.301 427.713 65.919 463.917 65.919 527.529 2.301" id="polygon51" style="fill-opacity: 1; stroke-opacity: 1; fill: rgb(221, 221, 221);"/>
    <polygon points="527.58 2.301 463.971 65.919 500.175 65.919 563.784 2.301" id="polygon53" style="fill-opacity: 1; stroke-opacity: 1; fill: rgb(238, 238, 238);"/>
    <polygon points="563.799 2.301 500.187 65.919 536.391 65.919 600 2.301" id="polygon55" style="fill-opacity: 1; stroke-opacity: 1; fill: rgb(255, 255, 255);"/>
  </g>
</svg>
